pro/src/icons/stroke-error.svg

<svg width="48" height="48" viewBox="0 0 48 48" fill="none" xmlns="http://www.w3.org/2000/svg">
<path id="icon" fill-rule="evenodd" clip-rule="evenodd" d="M24 4.90909C13.4545 4.90909 4.90909 13.4545 4.90909 24C4.90909 34.5455 13.4545 43.0909 24 43.0909C34.5455 43.0909 43.0909 34.5455 43.0909 24C43.0909 20.7082 42.2547 17.6094 40.7823 14.9009C40.5305 14.4377 40.7018 13.8582 41.165 13.6064C41.6282 13.3546 42.2078 13.5259 42.4595 13.9891C44.0798 16.9697 45 20.3809 45 24C45 35.5999 35.5999 45 24 45C12.4001 45 3 35.5999 3 24C3 12.4001 12.4001 3 24 3C27.5678 3 30.9396 3.88973 33.8828 5.47146C34.3471 5.72102 34.5213 6.29977 34.2717 6.76414C34.0222 7.22851 33.4434 7.40265 32.979 7.15309C30.3095 5.71845 27.2477 4.90909 24 4.90909ZM22.75 32.75C22.75 32.0596 23.3096 31.5 24 31.5C24.6904 31.5 25.25 32.0596 25.25 32.75C25.25 33.4404 24.6904 34 24 34C23.3096 34 22.75 33.4404 22.75 32.75ZM25 14.9512C25 14.4259 24.5523 14 24 14C23.4477 14 23 14.4259 23 14.9512V27.0488C23 27.5741 23.4477 28 24 28C24.5523 28 25 27.5741 25 27.0488V14.9512Z" fill="currentColor"/>
</svg>

<svg xmlns="http://www.w3.org/2000/svg" width="48" height="48" fill="none"><path id="icon" fill="currentColor" fill-rule="evenodd" d="M24 4.91C13.455 4.91 4.91 13.454 4.91 24S13.454 43.09 24 43.09 43.09 34.546 43.09 24c0-3.292-.835-6.39-2.308-9.1a.954.954 0 1 1 1.678-.91A20.9 20.9 0 0 1 45 24c0 11.6-9.4 21-21 21S3 35.6 3 24 12.4 3 24 3c3.568 0 6.94.89 9.883 2.471a.955.955 0 0 1-.904 1.682A18.9 18.9 0 0 0 24 4.91m-1.25 27.84a1.25 1.25 0 1 1 2.5 0 1.25 1.25 0 0 1-2.5 0M25 14.951c0-.525-.448-.951-1-.951s-1 .426-1 .951V27.05c0 .525.448.951 1 .951s1-.426 1-.951z" clip-rule="evenodd"/></svg>
